wp-content/plugins/convertkit/resources/backend/images/block-icon-product.svg

<svg width="24" height="24" viewBox="0 0 24 24" fill="none" xmlns="http://www.w3.org/2000/svg">
<path fill-rule="evenodd" clip-rule="evenodd" d="M12 1.25C9.37679 1.25 7.25 3.37679 7.25 6V6.25H5C4.03379 6.25 3.25 7.03379 3.25 8V20C3.25 20.9662 4.03379 21.75 5 21.75H19C19.9662 21.75 20.75 20.9662 20.75 20V8C20.75 7.03379 19.9662 6.25 19 6.25H16.75V6C16.75 3.37679 14.6232 1.25 12 1.25ZM15.25 7.75V10C15.25 10.4142 15.5858 10.75 16 10.75C16.4142 10.75 16.75 10.4142 16.75 10V7.75H19C19.1378 7.75 19.25 7.86221 19.25 8V20C19.25 20.1378 19.1378 20.25 19 20.25H5C4.86221 20.25 4.75 20.1378 4.75 20V8C4.75 7.86221 4.86221 7.75 5 7.75H7.25V10C7.25 10.4142 7.58579 10.75 8 10.75C8.41421 10.75 8.75 10.4142 8.75 10V7.75H15.25ZM15.25 6.25V6C15.25 4.20521 13.7948 2.75 12 2.75C10.2052 2.75 8.75 4.20521 8.75 6V6.25H15.25Z" fill="#373F45"/>
</svg>

<svg width="24" height="24" viewBox="0 0 24 24" xmlns="http://www.w3.org/2000/svg"><path fill="#FB6970" fill-rule="evenodd" d="M12 1.25A4.75 4.75 0 0 0 7.25 6v.25H5A1.75 1.75 0 0 0 3.25 8v12c0 .966.784 1.75 1.75 1.75h14A1.75 1.75 0 0 0 20.75 20V8A1.75 1.75 0 0 0 19 6.25h-2.25V6A4.75 4.75 0 0 0 12 1.25zm3.25 6.5V10a.75.75 0 0 0 1.5 0V7.75H19a.25.25 0 0 1 .25.25v12a.25.25 0 0 1-.25.25H5a.25.25 0 0 1-.25-.25V8A.25.25 0 0 1 5 7.75h2.25V10a.75.75 0 0 0 1.5 0V7.75h6.5zm0-1.5V6a3.25 3.25 0 0 0-6.5 0v.25h6.5z" clip-rule="evenodd"></path></svg>
